**kern	**kern	**dynam
*part1	*part1	*part1
*staff2	*staff1	*
*I"Piano	*	*
*clefF4	*clefG2	*
*k[f#]	*k[f#]	*
=1	=1	=1
!	!LO:TX:a:i:t=dim.	!
4GG	(8bL 8dd	.
.	8g 8b	.
8D 8G 8B	8aJ) 8cc	.
=	=	=
4GG	(8bL 8dd	.
.	8g 8b	.
8D 8G 8B	8aJ) 8cc	.
=	=	=
4DD	(8bL 8dd	.
.	8g 8b	.
8D 8G	8aJ) 8cc	.
=	=	=
4DD	(8bL 8dd	.
.	8g 8b	.
8D 8G	8aJ) 8cc	.
=	=	=
*	*^	*
4GGG	(8ddL	4.fn	.
.	8g	.	.
8D 8G	8bJ)	.	.
=	=	=	=
4GGG	(8ddL	4.fn	.
.	8g	.	.
8D 8G	8bJ)	.	.
=	=	=	=
!	!	!	!LO:DY:a
4CC	(8ddL	4.fn	>
.	8g	.	.
8C 8G	8bJ)	.	.
=	=	=	=
4CC	(8ccL	4.e	.
.	8g	.	.
8C 8G	8aJ)	.	]]
=	=	=	=
!	!	!	!LO:DY:a
[4.GGG [4.GG	[4.b	[4.d	pp
=	=	=	=
4GGG] 4GG]	4b]	4d]	.
8r	8r	8ryy	.
*	*v	*v	*
==	==	==
*-	*-	*-
!!!system-decoration: {(s1,s2)}
